src/svg/28/block_outline_28.svg

<svg height="28" viewBox="0 0 28 28" width="28" xmlns="http://www.w3.org/2000/svg"><g fill="none" fill-rule="evenodd" transform=""><path d="m0 0h28v28h-28z"/><path d="m20.3287318 21.7429453-14.07167713-14.07167706c-1.41068938 1.72387057-2.25705467 3.92746156-2.25705467 6.32873176 0 5.5228475 4.4771525 10 10 10 2.4012702 0 4.6048612-.8463653 6.3287318-2.2570547zm1.4142135-1.4142135c1.4106894-1.7238706 2.2570547-3.9274616 2.2570547-6.3287318 0-5.5228475-4.4771525-10-10-10-2.4012702 0-4.60486119.84636529-6.32873176 2.25705467zm-7.7429453 5.6712682c-6.627417 0-12-5.372583-12-12s5.372583-12 12-12 12 5.372583 12 12-5.372583 12-12 12z" fill="currentColor" fill-rule="nonzero"/></g></svg>

<?xml version="1.0" encoding="UTF-8"?>
<svg width="28px" height="28px" viewBox="0 0 28 28" version="1.1" xmlns="http://www.w3.org/2000/svg" xmlns:xlink="http://www.w3.org/1999/xlink">
    <!-- Generator: Sketch 63.1 (92452) - https://sketch.com -->
    <title>block_outline_28</title>
    <desc>Created with Sketch.</desc>
    <g id="Page-1" stroke="none" stroke-width="1" fill="none" fill-rule="evenodd">
        <g id="block_outline_28">
            <polygon points="0 0 28 0 28 28 0 28"></polygon>
            <path d="M20.3287318,21.7429453 L6.25705467,7.67126824 C4.84636529,9.39513881 4,11.5987298 4,14 C4,19.5228475 8.4771525,24 14,24 C16.4012702,24 18.6048612,23.1536347 20.3287318,21.7429453 L20.3287318,21.7429453 Z M21.7429453,20.3287318 C23.1536347,18.6048612 24,16.4012702 24,14 C24,8.4771525 19.5228475,4 14,4 C11.5987298,4 9.39513881,4.84636529 7.67126824,6.25705467 L21.7429453,20.3287318 L21.7429453,20.3287318 Z M14,26 C7.372583,26 2,20.627417 2,14 C2,7.372583 7.372583,2 14,2 C20.627417,2 26,7.372583 26,14 C26,20.627417 20.627417,26 14,26 Z" id="↳-Icon-Color" fill="currentColor" fill-rule="nonzero"></path>
        </g>
    </g>
</svg>
